modules/mod-page-builder/libs/views/manager/img/syntax-text.svg

<svg xmlns="http://www.w3.org/2000/svg" width="14" height="16" viewBox="0 0 14 16">
 <path fill-rule="evenodd" d="M3 10h4V9H3v1zm0-2h6V7H3v1zm0-2h8V5H3v1zm10 6H1V3h12v9zM1 2c-.55 0-1 .45-1 1v9c0 .55.45 1 1 1h12c.55 0 1-.45 1-1V3c0-.55-.45-1-1-1H1z"/>
</svg>

<svg width="14px" height="16px" viewBox="0 0 14 16" version="1.1" xmlns="http://www.w3.org/2000/svg" xmlns:xlink="http://www.w3.org/1999/xlink">
    <g id="Octicons" stroke="none" stroke-width="1" fill="none" fill-rule="evenodd">
        <g id="note" fill="#000000">
            <path d="M3,10 L7,10 L7,9 L3,9 L3,10 L3,10 Z M3,8 L9,8 L9,7 L3,7 L3,8 L3,8 Z M3,6 L11,6 L11,5 L3,5 L3,6 L3,6 Z M13,12 L1,12 L1,3 L13,3 L13,12 L13,12 Z M1,2 C0.45,2 0,2.45 0,3 L0,12 C0,12.55 0.45,13 1,13 L13,13 C13.55,13 14,12.55 14,12 L14,3 C14,2.45 13.55,2 13,2 L1,2 L1,2 Z" id="Shape"></path>
        </g>
    </g>
</svg>
